common/resources/fonts/svg/official.svg

<?xml version="1.0" encoding="UTF-8" standalone="no"?>
<svg width="1024px" height="1024px" viewBox="0 0 1024 1024" version="1.1" xmlns="http://www.w3.org/2000/svg" xmlns:xlink="http://www.w3.org/1999/xlink">
    <!-- Generator: Sketch 3.7.1 (28215) - http://www.bohemiancoding.com/sketch -->
    <title>official</title>
    <desc>Created with Sketch.</desc>
    <defs></defs>
    <g id="Page-1" stroke="none" stroke-width="1" fill="none" fill-rule="evenodd">
        <g id="official" fill="#000000">
            <path d="M512,110.046875 C290.023438,110.046875 110.046875,290.023438 110.046875,512 C110.046875,733.976563 290.023438,913.953125 512,913.953125 C733.976563,913.953125 913.953125,733.976563 913.953125,512 C913.953125,290.023438 733.976563,110.046875 512,110.046875 L512,110.046875 Z M416.433594,771.054687 L197.574219,513.804687 L288.957031,435.464844 L416.433594,585.992187 L717.570312,235.144531 L808.953125,313.484375 L416.433594,771.054687 L416.433594,771.054687 Z" id="Shape"></path>
        </g>
    </g>
</svg>

<svg width="1024" height="1024" viewBox="0 0 1024 1024">
    <path d="M512 110.047c-221.977 0-401.953 179.976-401.953 401.953 0 221.977 179.976 401.953 401.953 401.953 221.977 0 401.953-179.976 401.953-401.953 0-221.977-179.976-401.953-401.953-401.953zm-95.566 661.008l-218.86-257.25 91.383-78.34 127.477 150.527L717.57 235.145l91.383 78.34-392.52 457.57z" fill-rule="evenodd"/>
</svg>
